d1 $ stack[
s "bd(1,16,[0,-1,-6,-11])"
,s "cp(2,4,1)"
,s "hc*16"
]

d1 $ s "bd"

d2 $ s "hc<5, 8>"

d3 $ n "{0 2 3 2  0 3 4 5  0 3 5 3  0 5 3 2}%16" # s "house"
  # room (slow 16 $ range 0.2 0.95 saw) # sz 0.95
